X:42
T:Denis Murphy's Slide
M:12/8
L:1/8
K:AMix
A2 D FED F2 A A2 f|g2 e f2 d e2 d Bcd|\
A2 D FED F2 A A2 f|a2 f efe d3 d2 B :|
d2 e f3 gfe f3|gfe f2 d e2 d B2 A|\
d2 e f3 gfe f2 g|a2 f efe d3 d2 B :|
